svgs/sharp-thin/pallet-boxes.svg

<svg xmlns="http://www.w3.org/2000/svg" viewBox="0 0 640 512"><!--! Font Awesome Pro 6.6.0 by @fontawesome - https://fontawesome.com License - https://fontawesome.com/license (Commercial License) Copyright 2024 Fonticons, Inc. --><path d="M304 16L80 16l0 256 224 0 0-256zM80 0L304 0l16 0 0 16 0 256 0 16-16 0L80 288l-16 0 0-16L64 16 64 0 80 0zM560 112l-160 0 0 160 160 0 0-160zM400 96l160 0 16 0 0 16 0 160 0 16-16 0-160 0-16 0 0-16 0-160 0-16 16 0zM0 352l8 0 72 0 8 0 8 0 216 0 8 0 8 0 216 0 8 0 8 0 72 0 8 0 0 16-8 0-72 0 0 128 72 0 8 0 0 16-8 0-72 0-8 0-8 0-216 0-8 0-8 0L96 512l-8 0-8 0L8 512l-8 0 0-16 8 0 72 0 0-128L8 368l-8 0 0-16zM96 496l216 0 0-128L96 368l0 128zm232 0l216 0 0-128-216 0 0 128z"/></svg>

<svg xmlns="http://www.w3.org/2000/svg" viewBox="0 0 640 512"><!--! Font Awesome Pro 6.5.2 by @fontawesome - https://fontawesome.com License - https://fontawesome.com/license (Commercial License) Copyright 2024 Fonticons, Inc. --><path d="M304 16H80V272H304V16zM80 0H304h16V16 272v16H304 80 64V272 16 0H80zM560 112H400V272H560V112zM400 96H560h16v16V272v16H560 400 384V272 112 96h16zM0 352H8 80h8 8H312h8 8H544h8 8 72 8v16h-8H560V496h72 8v16h-8H560h-8-8H328h-8-8H96 88 80 8 0V496H8 80V368H8 0V352zM96 496H312V368H96V496zm232 0H544V368H328V496z"/></svg>
